public/img/svgs/icons/twitter.svg

<svg width="24" height="24" viewBox="0 0 24 24" fill="none" xmlns="http://www.w3.org/2000/svg">
<path fill-rule="evenodd" clip-rule="evenodd" d="M9.032 19C15.0696 19 18.372 13.6132 18.372 8.94228C18.372 8.78894 18.372 8.63646 18.3624 8.48484C19.0048 7.98518 19.5592 7.36492 20 6.65506C19.4016 6.94107 18.7656 7.12887 18.1152 7.21158C18.8 6.76964 19.3128 6.07529 19.5584 5.25603C18.9136 5.66781 18.2088 5.95813 17.4736 6.11406C16.2304 4.6909 14.1512 4.62198 12.8288 5.96071C11.9768 6.82391 11.6144 8.11096 11.8792 9.33856C9.24 9.19555 6.7808 7.85337 5.1136 5.64541C4.2424 7.26068 4.688 9.3265 6.1304 10.3637C5.608 10.3473 5.0968 10.1957 4.64 9.92178V9.96657C4.6408 11.649 5.7424 13.098 7.2736 13.4314C6.7904 13.5736 6.2832 13.5942 5.792 13.4917C6.2216 14.9321 7.4544 15.9185 8.8584 15.9469C7.696 16.9307 6.26 17.4649 4.7816 17.4631C4.5208 17.4623 4.26 17.4459 4 17.4123C5.5016 18.4495 7.248 19 9.032 18.9974" fill="#2B2F51"/>
</svg>

<svg width="24" height="24" fill="none" xmlns="http://www.w3.org/2000/svg"><path fill-rule="evenodd" clip-rule="evenodd" d="M9.032 19c6.038 0 9.34-5.387 9.34-10.058 0-.153 0-.306-.01-.457A6.975 6.975 0 0020 6.655a6.178 6.178 0 01-1.885.557 3.518 3.518 0 001.443-1.956 6.302 6.302 0 01-2.084.858c-1.244-1.423-3.323-1.492-4.645-.153-.852.863-1.215 2.15-.95 3.378-2.639-.143-5.098-1.486-6.765-3.694-.872 1.616-.426 3.681 1.016 4.719a3.083 3.083 0 01-1.49-.442v.045c0 1.682 1.102 3.131 2.634 3.464a3.04 3.04 0 01-1.482.06c.43 1.441 1.662 2.428 3.066 2.456-1.162.984-2.598 1.518-4.076 1.516a6.21 6.21 0 01-.782-.05 8.82 8.82 0 005.032 1.584" fill="#2B2F51"/></svg>
